lib/brands/icons/gerrit.svg

<svg xmlns="http://www.w3.org/2000/svg" fill="none" aria-hidden="true" viewBox="0 0 48 48"><g id="gerrit-Icon"><g id="Group"><path id="Vector" fill="#FFAAAA" d="M30.9231 6H8.76923C7.23983 6 6 7.23983 6 8.76923V30.9231C6 32.4525 7.23983 33.6923 8.76923 33.6923H30.9231C32.4525 33.6923 33.6923 32.4525 33.6923 30.9231V8.76923C33.6923 7.23983 32.4525 6 30.9231 6Z"/><path id="Vector_2" fill="#AAFFAA" d="M39.2307 14.3077H17.0768C15.5474 14.3077 14.3076 15.5475 14.3076 17.0769V39.2308C14.3076 40.7602 15.5474 42 17.0768 42H39.2307C40.7601 42 41.9999 40.7602 41.9999 39.2308V17.0769C41.9999 15.5475 40.7601 14.3077 39.2307 14.3077Z"/><g id="Vector_3"><path fill="#FF0000" d="M18.4614 21.2308H26.7691V24H18.4614V21.2308Z"/><path fill="#FF0000" d="M29.5383 21.2308H37.846V24H29.5383V21.2308Z"/></g><g id="Vector_4"><path fill="#008000" d="M18.4614 30.9231H21.2307V28.1539H23.9999V30.9231H26.7691V33.6923H23.9999V36.4616H21.2307V33.6923H18.4614V30.9231Z"/><path fill="#008000" d="M29.5383 30.9231H32.3076V28.1539H35.0768V30.9231H37.846V33.6923H35.0768V36.4616H32.3076V33.6923H29.5383V30.9231Z"/></g></g></g></svg>

<svg xmlns="http://www.w3.org/2000/svg" fill="none" aria-hidden="true" viewBox="0 0 48 48"><path fill="#FAA" d="M30.923 6H8.77A2.77 2.77 0 0 0 6 8.77v22.153a2.77 2.77 0 0 0 2.77 2.77h22.153a2.77 2.77 0 0 0 2.77-2.77V8.77A2.77 2.77 0 0 0 30.922 6Z"/><path fill="#AFA" d="M39.23 14.308H17.078a2.77 2.77 0 0 0-2.77 2.769V39.23a2.77 2.77 0 0 0 2.77 2.77H39.23A2.77 2.77 0 0 0 42 39.23V17.078a2.77 2.77 0 0 0-2.77-2.77Z"/><path fill="red" d="M18.461 21.23h8.308V24h-8.308v-2.77Zm11.077 0h8.308V24h-8.308v-2.77Z"/><path fill="green" d="M18.461 30.923h2.77v-2.77H24v2.77h2.77v2.77H24v2.769h-2.77v-2.77h-2.769v-2.769Zm11.077 0h2.77v-2.77h2.769v2.77h2.769v2.77h-2.77v2.769h-2.768v-2.77h-2.77v-2.769Z"/></svg>
